X:1
T:Title
L:1/8
M:4/4
K:F
V:1 treble nm="Grand Piano"
V:1
 z4[Q:1/4=100] DEFG | A2 B2 AGFG | A3 A d2 A2 | A3 G FEFG | F2 E2 DEFG | A2 B2 AGFG | A3 A d2 A2 | %7
 cBAG F2 E2 | D4 DEFG | F2 E2 EFGA | G2 F2 FGAB | A2 G2 FEFG | A4 DEFG | A2 B2 AGFG | A3 A d2 A2 | %15
 cBAG F2 E2 | D4 z4 |] %17

